public/assets/images/icons/google-play.svg

<svg width="192" height="56" viewBox="0 0 192 56" fill="none" xmlns="http://www.w3.org/2000/svg">
  <rect width="192" height="56" rx="10" fill="#151515"/>
  <path d="M70.8992 16.0435C70.8992 17.0428 70.5927 17.8431 69.9891 18.4399C69.295 19.1475 68.391 19.5035 67.2833 19.5035C66.2245 19.5035 65.3205 19.1415 64.579 18.428C63.8359 17.7039 63.4651 16.8154 63.4651 15.7518C63.4651 14.6882 63.8359 13.7996 64.579 13.0816C65.3205 12.362 66.2245 12 67.2833 12C67.8103 12 68.3129 12.1062 68.7924 12.3037C69.2705 12.5026 69.6596 12.7719 69.9416 13.104L69.3011 13.7353C68.8093 13.1683 68.1397 12.8886 67.2833 12.8886C66.511 12.8886 65.8415 13.1519 65.273 13.6829C64.7107 14.2155 64.4288 14.9051 64.4288 15.7518C64.4288 16.5985 64.7107 17.2941 65.273 17.8266C65.8415 18.3517 66.511 18.6209 67.2833 18.6209C68.103 18.6209 68.7924 18.3517 69.3364 17.8206C69.6949 17.4691 69.8987 16.9844 69.9523 16.3651H67.2833V15.5005H70.844C70.8869 15.6874 70.8992 15.8685 70.8992 16.0435V16.0435Z" fill="white" stroke="white" stroke-width="0.147291" stroke-miterlimit="10"/>
  <path d="M76.5484 13.0452H73.2037V15.319H76.219V16.1836H73.2037V18.4574H76.5484V19.3385H72.2568V12.1641H76.5484V13.0452Z" fill="white" stroke="white" stroke-width="0.147291" stroke-miterlimit="10"/>
  <path d="M80.5351 19.3385H79.5882V13.0452H77.5366V12.1641H82.5882V13.0452H80.5351V19.3385V19.3385Z" fill="white" stroke="white" stroke-width="0.147291" stroke-miterlimit="10"/>
  <path d="M86.2439 19.3385V12.1641H87.1892V19.3385H86.2439Z" fill="white" stroke="white" stroke-width="0.147291" stroke-miterlimit="10"/>
  <path d="M91.3798 19.3385H90.4406V13.0452H88.3813V12.1641H93.439V13.0452H91.3798V19.3385Z" fill="white" stroke="white" stroke-width="0.147291" stroke-miterlimit="10"/>
  <path d="M103.003 18.416C102.278 19.1415 101.38 19.5035 100.309 19.5035C99.2322 19.5035 98.3343 19.1415 97.6096 18.416C96.8864 17.692 96.5264 16.8034 96.5264 15.7518C96.5264 14.7001 96.8864 13.8116 97.6096 13.0875C98.3343 12.362 99.2322 12 100.309 12C101.374 12 102.272 12.362 102.997 13.0935C103.726 13.8235 104.086 14.7061 104.086 15.7518C104.086 16.8034 103.726 17.692 103.003 18.416ZM98.3098 17.8146C98.8553 18.3517 99.5187 18.6209 100.309 18.6209C101.094 18.6209 101.763 18.3517 102.303 17.8146C102.847 17.2776 103.122 16.588 103.122 15.7518C103.122 14.9156 102.847 14.2259 102.303 13.6889C101.763 13.1519 101.094 12.8826 100.309 12.8826C99.5187 12.8826 98.8553 13.1519 98.3098 13.6889C97.7659 14.2259 97.4901 14.9156 97.4901 15.7518C97.4901 16.588 97.7659 17.2776 98.3098 17.8146V17.8146Z" fill="white" stroke="white" stroke-width="0.147291" stroke-miterlimit="10"/>
  <path d="M105.415 19.3385V12.1641H106.564L110.137 17.7439H110.178L110.137 16.3646V12.1641H111.082V19.3385H110.095L106.354 13.4835H106.312L106.354 14.8687V19.3385H105.415V19.3385Z" fill="white" stroke="white" stroke-width="0.147291" stroke-miterlimit="10"/>
  <path d="M96.2936 29.8166C93.4146 29.8166 91.0628 31.9558 91.0628 34.9072C91.0628 37.8348 93.4146 39.9964 96.2936 39.9964C99.1787 39.9964 101.531 37.8348 101.531 34.9072C101.531 31.9558 99.1787 29.8166 96.2936 29.8166ZM96.2936 37.9918C94.7139 37.9918 93.3549 36.7188 93.3549 34.9072C93.3549 33.0717 94.7139 31.8212 96.2936 31.8212C97.8732 31.8212 99.2384 33.0717 99.2384 34.9072C99.2384 36.7188 97.8732 37.9918 96.2936 37.9918V37.9918ZM84.8804 29.8166C81.9954 29.8166 79.6496 31.9558 79.6496 34.9072C79.6496 37.8348 81.9954 39.9964 84.8804 39.9964C87.764 39.9964 90.1113 37.8348 90.1113 34.9072C90.1113 31.9558 87.764 29.8166 84.8804 29.8166ZM84.8804 37.9918C83.2992 37.9918 81.9356 36.7188 81.9356 34.9072C81.9356 33.0717 83.2992 31.8212 84.8804 31.8212C86.4601 31.8212 87.8192 33.0717 87.8192 34.9072C87.8192 36.7188 86.4601 37.9918 84.8804 37.9918ZM71.2993 31.3769V33.54H76.5899C76.4351 34.7487 76.0214 35.6373 75.3871 36.2566C74.6149 37.0045 73.4122 37.8348 71.2993 37.8348C68.0434 37.8348 65.4939 35.2693 65.4939 32.0904C65.4939 28.9116 68.0434 26.3461 71.2993 26.3461C73.0598 26.3461 74.3407 27.0178 75.286 27.8884L76.8473 26.364C75.525 25.1314 73.7661 24.1845 71.2993 24.1845C66.8346 24.1845 63.0823 27.7313 63.0823 32.0904C63.0823 36.4495 66.8346 39.9964 71.2993 39.9964C73.7125 39.9964 75.525 39.2245 76.9499 37.7764C78.4101 36.3508 78.8652 34.3463 78.8652 32.7277C78.8652 32.2251 78.8223 31.7628 78.7456 31.3769H71.2993ZM126.834 33.0538C126.404 31.9154 125.075 29.8166 122.37 29.8166C119.688 29.8166 117.456 31.8795 117.456 34.9072C117.456 37.7585 119.665 39.9964 122.627 39.9964C125.022 39.9964 126.404 38.5708 126.972 37.7405L125.195 36.5842C124.602 37.4309 123.794 37.9918 122.627 37.9918C121.467 37.9918 120.635 37.4727 120.102 36.4495L127.075 33.6327L126.834 33.0538V33.0538ZM119.725 34.7487C119.665 32.786 121.286 31.7808 122.448 31.7808C123.358 31.7808 124.13 32.2251 124.387 32.8608L119.725 34.7487V34.7487ZM114.058 39.6867H116.35V24.7275H114.058V39.6867ZM110.304 30.9505H110.227C109.712 30.3552 108.73 29.8166 107.486 29.8166C104.875 29.8166 102.488 32.0545 102.488 34.9237C102.488 37.7764 104.875 39.9964 107.486 39.9964C108.73 39.9964 109.712 39.4533 110.227 38.84H110.304V39.57C110.304 41.5162 109.239 42.5619 107.521 42.5619C106.121 42.5619 105.252 41.5746 104.894 40.7443L102.9 41.5566C103.475 42.9059 104.996 44.5664 107.521 44.5664C110.209 44.5664 112.476 43.0226 112.476 39.2664V30.1263H110.304V30.9505V30.9505ZM107.682 37.9918C106.103 37.9918 104.78 36.7009 104.78 34.9237C104.78 33.1301 106.103 31.8212 107.682 31.8212C109.239 31.8212 110.466 33.1301 110.466 34.9237C110.466 36.7009 109.239 37.9918 107.682 37.9918V37.9918ZM137.566 24.7275H132.084V39.6867H134.37V34.0187H137.566C140.104 34.0187 142.594 32.2251 142.594 29.3723C142.594 26.5211 140.098 24.7275 137.566 24.7275V24.7275ZM137.625 31.9378H134.37V26.8083H137.625C139.332 26.8083 140.307 28.192 140.307 29.3723C140.307 30.5302 139.332 31.9378 137.625 31.9378ZM151.757 29.7882C150.105 29.7882 148.387 30.5003 147.681 32.0785L149.71 32.9087C150.146 32.0785 150.949 31.8092 151.798 31.8092C152.984 31.8092 154.187 32.5048 154.205 33.7329V33.89C153.791 33.6566 152.906 33.3111 151.816 33.3111C149.631 33.3111 147.405 34.4854 147.405 36.6769C147.405 38.6815 149.195 39.9724 151.207 39.9724C152.745 39.9724 153.594 39.2948 154.127 38.5064H154.205V39.6628H156.413V33.9244C156.413 31.2722 154.384 29.7882 151.757 29.7882ZM151.481 37.9858C150.733 37.9858 149.691 37.6238 149.691 36.7188C149.691 35.561 150.991 35.1167 152.115 35.1167C153.122 35.1167 153.594 35.3336 154.205 35.6193C154.026 37.0045 152.805 37.9858 151.481 37.9858V37.9858ZM164.457 30.1158L161.829 36.6006H161.751L159.034 30.1158H156.569L160.651 39.1781L158.322 44.2208H160.711L167 30.1158H164.457V30.1158ZM143.851 39.6867H146.143V24.7275H143.851V39.6867Z" fill="white"/>
  <path d="M25.5684 12.8063C25.2084 13.1743 25 13.7472 25 14.4892V40.9551C25 41.697 25.2084 42.27 25.5684 42.638L25.6573 42.7188L40.8472 27.8942V27.5441L25.6573 12.7195L25.5684 12.8063Z" fill="url(#paint0_linear_1_2)"/>
  <path d="M45.9051 32.8359L40.8474 27.8919V27.5419L45.9112 22.5978L46.0246 22.6622L52.0215 25.9936C53.733 26.939 53.733 28.4948 52.0215 29.4462L46.0246 32.7716L45.9051 32.8359V32.8359Z" fill="url(#paint1_linear_1_2)"/>
  <path d="M46.0246 32.771L40.8474 27.7162L25.5686 42.6351C26.137 43.2185 27.064 43.2888 28.1181 42.7054L46.0246 32.771" fill="url(#paint2_linear_1_2)"/>
  <path d="M46.0246 22.664L28.1181 12.7296C27.064 12.1522 26.137 12.2225 25.5686 12.8059L40.8474 27.7188L46.0246 22.664Z" fill="url(#paint3_linear_1_2)"/>
  <defs>
    <linearGradient id="paint0_linear_1_2" x1="39.4986" y1="41.2307" x2="19.4202" y2="20.6658" gradientUnits="userSpaceOnUse">
      <stop stop-color="#00A0FF"/>
      <stop offset="0.0066" stop-color="#00A1FF"/>
      <stop offset="0.2601" stop-color="#00BEFF"/>
      <stop offset="0.5122" stop-color="#00D2FF"/>
      <stop offset="0.7604" stop-color="#00DFFF"/>
      <stop offset="1" stop-color="#00E3FF"/>
    </linearGradient>
    <linearGradient id="paint1_linear_1_2" x1="54.2501" y1="27.7152" x2="24.5911" y2="27.7152" gradientUnits="userSpaceOnUse">
      <stop stop-color="#FFE000"/>
      <stop offset="0.4087" stop-color="#FFBD00"/>
      <stop offset="0.7754" stop-color="#FFA500"/>
      <stop offset="1" stop-color="#FF9C00"/>
    </linearGradient>
    <linearGradient id="paint2_linear_1_2" x1="43.2094" y1="24.9684" x2="15.9815" y2="-2.91925" gradientUnits="userSpaceOnUse">
      <stop stop-color="#FF3A44"/>
      <stop offset="1" stop-color="#C31162"/>
    </linearGradient>
    <linearGradient id="paint3_linear_1_2" x1="21.7226" y1="51.4426" x2="33.8811" y2="38.9897" gradientUnits="userSpaceOnUse">
      <stop stop-color="#32A071"/>
      <stop offset="0.0685" stop-color="#2DA771"/>
      <stop offset="0.4762" stop-color="#15CF74"/>
      <stop offset="0.8009" stop-color="#06E775"/>
      <stop offset="1" stop-color="#00F076"/>
    </linearGradient>
  </defs>
</svg>

<svg width="192" height="56" fill="none" xmlns="http://www.w3.org/2000/svg"><rect width="192" height="56" rx="10" fill="#151515"/><path d="M70.9 16.044c0 .999-.307 1.8-.91 2.396-.695.707-1.599 1.063-2.707 1.063-1.058 0-1.963-.361-2.704-1.075-.743-.724-1.114-1.613-1.114-2.676 0-1.064.37-1.952 1.114-2.67.742-.72 1.646-1.082 2.704-1.082.527 0 1.03.106 1.51.304.477.199.867.468 1.149.8l-.64.631c-.493-.567-1.162-.846-2.019-.846-.772 0-1.442.263-2.01.794-.562.533-.844 1.222-.844 2.069s.282 1.542.844 2.075a2.87 2.87 0 002.01.794c.82 0 1.51-.27 2.053-.8.359-.352.563-.837.616-1.456h-2.669v-.864h3.561a2.4 2.4 0 01.055.543v0zM76.548 13.045h-3.344v2.274h3.015v.865h-3.015v2.273h3.344v.881h-4.291v-7.174h4.291v.881zM80.535 19.338h-.947v-6.293h-2.051v-.88h5.051v.88h-2.053v6.293zM86.244 19.338v-7.174h.945v7.175h-.945zM91.38 19.338h-.94v-6.293h-2.059v-.88h5.058v.88h-2.06v6.293zM103.003 18.416c-.725.726-1.623 1.087-2.694 1.087-1.077 0-1.975-.361-2.7-1.087-.723-.724-1.083-1.613-1.083-2.664 0-1.052.36-1.94 1.084-2.665.724-.725 1.622-1.087 2.699-1.087 1.065 0 1.963.362 2.688 1.094.729.73 1.089 1.612 1.089 2.658 0 1.051-.36 1.94-1.083 2.664zm-4.693-.601c.545.537 1.209.806 1.999.806.785 0 1.454-.27 1.994-.806.544-.537.819-1.227.819-2.063 0-.836-.275-1.526-.819-2.063-.54-.537-1.209-.806-1.994-.806-.79 0-1.454.269-2 .806-.543.537-.819 1.227-.819 2.063 0 .836.276 1.526.82 2.063v0zM105.415 19.338v-7.174h1.149l3.573 5.58h.041l-.041-1.38v-4.2h.945v7.175h-.987l-3.741-5.855h-.042l.042 1.385v4.47h-.939v0z" fill="#fff" stroke="#fff" stroke-width=".147" stroke-miterlimit="10"/><path d="M96.294 29.817c-2.88 0-5.231 2.139-5.231 5.09 0 2.928 2.352 5.09 5.23 5.09 2.886 0 5.238-2.162 5.238-5.09 0-2.951-2.352-5.09-5.237-5.09zm0 8.175c-1.58 0-2.94-1.273-2.94-3.085 0-1.835 1.36-3.086 2.94-3.086 1.58 0 2.944 1.25 2.944 3.086 0 1.812-1.365 3.085-2.944 3.085zM84.88 29.817c-2.885 0-5.23 2.139-5.23 5.09 0 2.928 2.345 5.09 5.23 5.09 2.884 0 5.231-2.162 5.231-5.09 0-2.951-2.347-5.09-5.23-5.09zm0 8.175c-1.58 0-2.944-1.273-2.944-3.085 0-1.835 1.363-3.086 2.944-3.086 1.58 0 2.94 1.25 2.94 3.086 0 1.812-1.36 3.085-2.94 3.085zM71.3 31.377v2.163h5.29c-.155 1.209-.569 2.097-1.203 2.717-.772.748-1.975 1.578-4.088 1.578-3.256 0-5.805-2.566-5.805-5.745 0-3.178 2.55-5.744 5.805-5.744 1.76 0 3.042.672 3.987 1.542l1.561-1.524c-1.322-1.233-3.08-2.18-5.548-2.18-4.464 0-8.217 3.547-8.217 7.906 0 4.36 3.753 7.906 8.217 7.906 2.413 0 4.226-.772 5.65-2.22 1.461-1.425 1.916-3.43 1.916-5.048 0-.503-.043-.965-.12-1.351H71.3zm55.534 1.677c-.43-1.139-1.759-3.237-4.464-3.237-2.682 0-4.914 2.063-4.914 5.09 0 2.852 2.209 5.09 5.171 5.09a5.195 5.195 0 004.345-2.257l-1.777-1.156c-.593.847-1.401 1.408-2.568 1.408-1.16 0-1.992-.52-2.525-1.542l6.973-2.817-.241-.58zm-7.109 1.695a2.823 2.823 0 012.723-2.968c.91 0 1.682.444 1.939 1.08l-4.662 1.888zm-5.667 4.938h2.292v-14.96h-2.292v14.96zm-3.754-8.736h-.077c-.515-.596-1.497-1.134-2.741-1.134-2.611 0-4.998 2.237-4.998 5.107 0 2.852 2.387 5.072 4.998 5.072 1.244 0 2.226-.543 2.741-1.156h.077v.73c0 1.946-1.065 2.992-2.783 2.992-1.4 0-2.269-.987-2.627-1.818l-1.994.813c.575 1.349 2.096 3.01 4.621 3.01 2.688 0 4.955-1.544 4.955-5.3v-9.14h-2.172v.824zm-2.622 7.04c-1.579 0-2.902-1.29-2.902-3.067 0-1.794 1.323-3.103 2.902-3.103 1.557 0 2.784 1.31 2.784 3.103 0 1.777-1.227 3.068-2.784 3.068zm29.884-13.264h-5.482v14.96h2.286v-5.668h3.196c2.538 0 5.028-1.794 5.028-4.647 0-2.85-2.496-4.645-5.028-4.645zm.059 7.21h-3.255v-5.129h3.255a2.627 2.627 0 012.682 2.564c0 1.158-.975 2.566-2.682 2.566zm14.132-2.149c-1.652 0-3.37.712-4.076 2.29l2.029.83c.436-.83 1.239-1.099 2.088-1.099 1.186 0 2.389.696 2.407 1.924v.157c-.414-.233-1.299-.579-2.389-.579-2.185 0-4.411 1.174-4.411 3.366 0 2.005 1.79 3.295 3.802 3.295 1.538 0 2.387-.677 2.92-1.466h.078v1.157h2.208v-5.739c0-2.652-2.029-4.136-4.656-4.136zm-.276 8.198c-.748 0-1.79-.362-1.79-1.267 0-1.158 1.3-1.602 2.424-1.602 1.007 0 1.479.217 2.09.502-.179 1.386-1.4 2.367-2.724 2.367zm12.976-7.87l-2.628 6.485h-.078l-2.717-6.485h-2.465l4.082 9.062-2.329 5.043h2.389L167 30.116h-2.543zm-20.606 9.57h2.292V24.728h-2.292v14.96z" fill="#fff"/><path d="M25.568 12.806c-.36.368-.568.941-.568 1.683v26.466c0 .742.208 1.315.568 1.683l.09.08 15.19-14.824v-.35L25.657 12.72l-.09.087z" fill="url(#paint0_linear_1_2)"/><path d="M45.905 32.836l-5.058-4.944v-.35l5.064-4.944.114.064 5.997 3.332c1.711.945 1.711 2.5 0 3.452l-5.997 3.326-.12.064z" fill="url(#paint1_linear_1_2)"/><path d="M46.025 32.771l-5.178-5.055-15.278 14.92c.568.582 1.495.653 2.55.07l17.906-9.935" fill="url(#paint2_linear_1_2)"/><path d="M46.025 22.664L28.118 12.73c-1.054-.578-1.981-.508-2.55.076l15.28 14.913 5.177-5.055z" fill="url(#paint3_linear_1_2)"/><defs><linearGradient id="paint0_linear_1_2" x1="39.499" y1="41.231" x2="19.42" y2="20.666" gradientUnits="userSpaceOnUse"><stop stop-color="#00A0FF"/><stop offset=".007" stop-color="#00A1FF"/><stop offset=".26" stop-color="#00BEFF"/><stop offset=".512" stop-color="#00D2FF"/><stop offset=".76" stop-color="#00DFFF"/><stop offset="1" stop-color="#00E3FF"/></linearGradient><linearGradient id="paint1_linear_1_2" x1="54.25" y1="27.715" x2="24.591" y2="27.715" gradientUnits="userSpaceOnUse"><stop stop-color="#FFE000"/><stop offset=".409" stop-color="#FFBD00"/><stop offset=".775" stop-color="orange"/><stop offset="1" stop-color="#FF9C00"/></linearGradient><linearGradient id="paint2_linear_1_2" x1="43.209" y1="24.968" x2="15.982" y2="-2.919" gradientUnits="userSpaceOnUse"><stop stop-color="#FF3A44"/><stop offset="1" stop-color="#C31162"/></linearGradient><linearGradient id="paint3_linear_1_2" x1="21.723" y1="51.443" x2="33.881" y2="38.99" gradientUnits="userSpaceOnUse"><stop stop-color="#32A071"/><stop offset=".069" stop-color="#2DA771"/><stop offset=".476" stop-color="#15CF74"/><stop offset=".801" stop-color="#06E775"/><stop offset="1" stop-color="#00F076"/></linearGradient></defs></svg>
